!!!OTL: 62. Gas-nign
!!!Genre:	Gas-nign
!!!Mode:	Freygish
!!!Listening/dance:	listening
!!!:	*F:
!!!One_Mode:	no
**kern
*thru
*I"P1
*clefG2
*>A
*k[b-e-a-]
*F:
=20:|!|:
=1
!LO:TX:a:i:t=G-freygish
4g
16ee-LL
16ddJ
8ccJ
=2
4dd
(16ccLL
16bnJ)
8a-J
=3
4bn
16a-LL
16gJ
8fJ
=4
2g
=5
8gL
8a-J
4bn
=6
8ccL
8bnXJ
16ccLL
16bnJ
8a-J
=7
(16a-LL
16ccJJ
4bn)
16a-LL
16gJJ
=8
(8gL
8ggJ)
4ff
=9
4ee-
8ddtL
8ccJ
=10
8ccL
8ffJ
4ee-
=11
4.dd
8cc
=12
8bnL
8cc
8dd
8ccJ
=13
8ddL
8cc
8bn
8a-J
=14
8bntL
8a-
8g
8fJ
=15
8gL
(8qbnX/
8a-J)
4f
=16
8bnL
8cc
8dd
8ccJ
=17
(8qee-/
8ddL)
8cc
8bn
8a-J
=18
2g
=19
2gg
*>B
!!!Begin-Modulation
*F:
=20:|!|:
*k[b-]
!LO:TX:a:i:t=F-major
8fL
8aJ
4cc
=21
8.b-L
16aJk
16b-LL
16aJ
8gJ
=22
8gL
8b-J
[4a
=23
4a]
4c
=24
8fL
8aJ
4cc
=25
8.b-L
16aJk
16b-LL
16aJ
8gJ
=26
8gL
(8qb-/
8aJ)
[4f
=27
4f]
4f
*>C
!!!End-Modulation
*-
